X: 87
T:Morgan Magan
M:4/4
L:1/8
F:http://blackrosetheband.googlepages.com/ABCTUNES.ABC May 2009
C:O'Carolan
R:Air
K:G
D2|"G"D2G2 G2AB|cBAG Bcd2|"C"e2A2 "A"A3G|"D"GFEF D2EF|
"G"G3A GFEF|"C"G2FE "G"D2G2|"D"FGA2 "A"A3G|"D"F2EF D2d2|
"G"G2B2 "D"AGA2|"G"G6B2|"C"c3B ABc2|"G"d4 "C"e4|
"G"d2B2 "Am"cBAG|"D"AGFE D2EF|"G"G2B2 "D"AGAF|"G"G6dc|
"G"B2d2 d2ef|g2G2 Bcdf|g2G2 Bcd2|"C"edcB "D"A2c2|
"G"BABc d2B2|"C"e2c2 "G"d2B2|"Am"c2A2 "G"B2G2|"D"F2D2 D3D|
"C"E2C2 C3D|E2C2 C3E|"D"F2D2 D2AG|FGEF D2Bc|
"G"d2B2 "C"edcB|cBAG "D"AGFE|"G"D2G2 "D"AGAF|"G"G8|
T:Last Time
"G"d2B2 "C"edcB|cBAG "D"AGFE|"G"D2G2 "D"AGAF|"G"G8|

